src/lib/resources/icons_svg/inspector_icons/gear_on.svg

<?xml version="1.0" encoding="UTF-8" standalone="no"?>
<svg
   xmlns:dc="http://purl.org/dc/elements/1.1/"
   xmlns:cc="http://creativecommons.org/ns#"
   xmlns:rdf="http://www.w3.org/1999/02/22-rdf-syntax-ns#"
   xmlns:svg="http://www.w3.org/2000/svg"
   xmlns="http://www.w3.org/2000/svg"
   xmlns:sodipodi="http://sodipodi.sourceforge.net/DTD/sodipodi-0.dtd"
   xmlns:inkscape="http://www.inkscape.org/namespaces/inkscape"
   width="48"
   height="48"
   viewBox="0 0 48 48"
   version="1.1"
   xml:space="preserve"
   style="clip-rule:evenodd;fill-rule:evenodd;stroke-linejoin:round;stroke-miterlimit:1.41420996"
   id="svg11"
   sodipodi:docname="gear_on.svg"
   inkscape:version="0.92.4 5da689c313, 2019-01-14"><metadata
   id="metadata17"><rdf:RDF><cc:Work
       rdf:about=""><dc:format>image/svg+xml</dc:format><dc:type
         rdf:resource="http://purl.org/dc/dcmitype/StillImage" /></cc:Work></rdf:RDF></metadata><defs
   id="defs15" /><sodipodi:namedview
   pagecolor="#ffffff"
   bordercolor="#666666"
   borderopacity="1"
   objecttolerance="10"
   gridtolerance="10"
   guidetolerance="10"
   inkscape:pageopacity="0"
   inkscape:pageshadow="2"
   inkscape:window-width="1920"
   inkscape:window-height="1007"
   id="namedview13"
   showgrid="false"
   inkscape:zoom="9.8333333"
   inkscape:cx="-6.3050848"
   inkscape:cy="27.366416"
   inkscape:window-x="0"
   inkscape:window-y="0"
   inkscape:window-maximized="1"
   inkscape:current-layer="layer1" />
    
    
    
<g
   inkscape:groupmode="layer"
   id="layer1"
   inkscape:label="Bg"
   style="display:inline"
   transform="translate(0,24)"><rect
     x="0"
     y="-24"
     width="48"
     height="48"
     style="clip-rule:evenodd;fill:#f6a019;fill-rule:evenodd;stroke:none;stroke-width:2.0869565;stroke-linejoin:round;stroke-miterlimit:1.41420996;stroke-opacity:1"
     id="rect2" /></g><g
   inkscape:groupmode="layer"
   id="layer2"
   inkscape:label="Icon"
   transform="translate(0,24)"><g
     transform="matrix(-0.0752906,0,0,-0.0752906,24,0)"
     id="g9"
     style="clip-rule:evenodd;fill:#000000;fill-opacity:1;fill-rule:evenodd;stroke-linejoin:round;stroke-miterlimit:1.41420996">
        <g
   transform="translate(-256,-256)"
   id="g7"
   style="fill:#000000;fill-opacity:1">
            <path
   id="path3844"
   d="m 245.5,511.002 c -14.945,-2.676 -14.746,-2.349 -17.991,-29.601 -4.19,-35.181 -8.596,-45.43 -25.206,-58.64 -22.941,-18.243 -49.485,-15.706 -78.559,7.51 C 94.525,453.603 91.999,453.914 74.875,436.29 58.197,419.125 58.36,417.705 80.151,390.339 104.966,359.176 107.907,333.11 89.25,309.698 76.005,293.076 65.776,288.68 30.599,284.491 8.468,281.856 4.508,280.639 3.134,276.052 c -3.642,-12.155 -3.642,-27.949 0,-40.104 1.374,-4.587 5.334,-5.804 27.465,-8.439 34.436,-4.101 44.683,-8.334 57.547,-23.772 19.814,-23.78 17.22,-50.411 -7.995,-82.076 C 58.381,94.323 58.155,91.932 75.71,74.875 c 17.2,-16.712 18.809,-16.482 48.034,6.854 48.375,38.627 95.664,18.269 102.784,-44.249 1.433,-12.581 4.812,-32.154 5.706,-33.048 2.741,-2.741 23.428,-4.947 32.81,-3.499 16.499,2.545 16.155,2.021 19.447,29.666 4.171,35.021 8.069,44.325 24.249,57.875 23.318,19.528 50.048,16.801 81.599,-8.323 27.366,-21.791 28.786,-21.954 45.951,-5.276 17.71,17.208 17.398,19.544 -6.637,49.625 -22.431,28.073 -24.837,55.237 -6.892,77.803 13.21,16.61 23.459,21.016 58.64,25.206 27.841,3.315 27.298,2.942 29.765,20.392 1.185,8.38 0.271,19.57 -2.3,28.151 -1.374,4.587 -5.334,5.804 -27.465,8.439 -35.021,4.171 -44.325,8.069 -57.875,24.249 -19.555,23.35 -16.836,50.005 8.323,81.599 21.791,27.366 21.954,28.786 5.276,45.951 -17.057,17.555 -19.448,17.329 -46.786,-4.441 -30.906,-24.611 -56.935,-27.732 -80.058,-9.602 -16.389,12.85 -21.56,23.745 -24.809,52.273 -1.433,12.581 -4.812,32.154 -5.706,33.048 -2.647,2.647 -25.738,4.961 -34.266,3.434 z M 279.334,373.509 C 371.376,354.42 407.209,243.034 343.458,174.177 274.304,99.485 148.749,141.519 136.914,243.325 c -9.204,79.163 64.33,146.379 142.42,130.184 z"
   style="fill:#000000;fill-opacity:1;fill-rule:nonzero"
   inkscape:connector-curvature="0" />
        </g>
    </g></g></svg>

<?xml version="1.0" encoding="UTF-8" standalone="no"?>
<!DOCTYPE svg PUBLIC "-//W3C//DTD SVG 1.1//EN" "http://www.w3.org/Graphics/SVG/1.1/DTD/svg11.dtd">
<svg width="100%" height="100%" viewBox="0 0 24 24" version="1.1" xmlns="http://www.w3.org/2000/svg" xmlns:xlink="http://www.w3.org/1999/xlink" xml:space="preserve" style="fill-rule:evenodd;clip-rule:evenodd;stroke-linejoin:round;stroke-miterlimit:1.41421;">
    <rect x="0.5" y="0.5" width="23" height="23" style="fill:rgb(246,160,25);"/>
    <path d="M24,24L0,24L0,0L24,0L24,24ZM1,23L23,23L23,1L1,1L1,23Z" style="fill-rule:nonzero;"/>
    <g transform="matrix(-0.0376453,0,0,-0.0376453,12,12)">
        <g transform="matrix(1,0,0,1,-256,-256)">
            <path id="path3844" d="M245.5,511.002C230.555,508.326 230.754,508.653 227.509,481.401C223.319,446.22 218.913,435.971 202.303,422.761C179.362,404.518 152.818,407.055 123.744,430.271C94.525,453.603 91.999,453.914 74.875,436.29C58.197,419.125 58.36,417.705 80.151,390.339C104.966,359.176 107.907,333.11 89.25,309.698C76.005,293.076 65.776,288.68 30.599,284.491C8.468,281.856 4.508,280.639 3.134,276.052C-0.508,263.897 -0.508,248.103 3.134,235.948C4.508,231.361 8.468,230.144 30.599,227.509C65.035,223.408 75.282,219.175 88.146,203.737C107.96,179.957 105.366,153.326 80.151,121.661C58.381,94.323 58.155,91.932 75.71,74.875C92.91,58.163 94.519,58.393 123.744,81.729C172.119,120.356 219.408,99.998 226.528,37.48C227.961,24.899 231.34,5.326 232.234,4.432C234.975,1.691 255.662,-0.515 265.044,0.933C281.543,3.478 281.199,2.954 284.491,30.599C288.662,65.62 292.56,74.924 308.74,88.474C332.058,108.002 358.788,105.275 390.339,80.151C417.705,58.36 419.125,58.197 436.29,74.875C454,92.083 453.688,94.419 429.653,124.5C407.222,152.573 404.816,179.737 422.761,202.303C435.971,218.913 446.22,223.319 481.401,227.509C509.242,230.824 508.699,230.451 511.166,247.901C512.351,256.281 511.437,267.471 508.866,276.052C507.492,280.639 503.532,281.856 481.401,284.491C446.38,288.662 437.076,292.56 423.526,308.74C403.971,332.09 406.69,358.745 431.849,390.339C453.64,417.705 453.803,419.125 437.125,436.29C420.068,453.845 417.677,453.619 390.339,431.849C359.433,407.238 333.404,404.117 310.281,422.247C293.892,435.097 288.721,445.992 285.472,474.52C284.039,487.101 280.66,506.674 279.766,507.568C277.119,510.215 254.028,512.529 245.5,511.002L245.5,511.002ZM279.334,373.509C371.376,354.42 407.209,243.034 343.458,174.177C274.304,99.485 148.749,141.519 136.914,243.325C127.71,322.488 201.244,389.704 279.334,373.509Z" style="fill:white;fill-rule:nonzero;"/>
        </g>
    </g>
</svg>
